X:6898
T:The Hero of Stony Tor
O:england
M:2/2
L:1/8
Q:160
C:Words and music by Catherine Faber, (c) 1990
S:From "A Breeze Through the CONduit"
A:Filk
B:A Breeze Through the CONduit
D:on the tape, "A Breeze Through the CONduit"
W:Once he was just Vanyel-lad, In gift and grief ensnared,
W:Few the folk that knew of him
W:And fewer still that cared.
W:No one, even he, knew what the future had in store--
W:Shadowstalker, Demon's Bane
W:The Hero of Stony Tor.
K:C
D2 D2 D2 D2|F2 F2 F2 F2| G2 G2 F2 G2|A8|A3 A G2 F2|G F2 E3 E2|
D D3 E2 F2|E8|
D2 D2 D2 D F-|F2 F2 F2 F G-|G2 G2 F2 G2|A8|D2 D2 D2 D2|A2 A2 A3 A|
A G F2 E2 F2|D8||


